Sources/FrostedUI/Resources/Icons.xcassets/lock12.imageset/lock-12.svg

<svg width="12" height="12" viewBox="0 0 12 12" fill="none" xmlns="http://www.w3.org/2000/svg" data-fui-icon="true">
  <path
    d="M6 0C7.933 0 9.5 1.567 9.5 3.5V4.69043C10.3814 5.06144 11 5.93389 11 6.9502V9.5498C11 10.9029 9.9029 12 8.5498 12H3.4502C2.0971 12 1 10.9029 1 9.5498V6.9502C1 5.93389 1.61861 5.06144 2.5 4.69043V3.5C2.5 1.567 4.067 0 6 0ZM3.4502 6C2.92552 6 2.5 6.42552 2.5 6.9502V9.5498C2.5 10.0745 2.92552 10.5 3.4502 10.5H8.5498C9.07448 10.5 9.5 10.0745 9.5 9.5498V6.9502C9.5 6.42552 9.07448 6 8.5498 6H3.4502ZM6 1.5C4.89543 1.5 4 2.39543 4 3.5V4.5H8V3.5C8 2.39543 7.10457 1.5 6 1.5Z"
    fill="currentColor"
  />
</svg>

<svg xmlns="http://www.w3.org/2000/svg" width="12" height="12" fill="none" data-fui-icon="true" viewBox="0 0 12 12"><path fill="currentColor" d="M6 0a3.5 3.5 0 0 1 3.5 3.5v1.19A2.45 2.45 0 0 1 11 6.95v2.6A2.45 2.45 0 0 1 8.55 12h-5.1A2.45 2.45 0 0 1 1 9.55v-2.6c0-1.016.619-1.889 1.5-2.26V3.5A3.5 3.5 0 0 1 6 0M3.45 6a.95.95 0 0 0-.95.95v2.6c0 .524.426.95.95.95h5.1a.95.95 0 0 0 .95-.95v-2.6A.95.95 0 0 0 8.55 6zM6 1.5a2 2 0 0 0-2 2v1h4v-1a2 2 0 0 0-2-2"/></svg>
